icon-themes/sifr_svg/cmd/sc_polygon_diagonal_unfilled.svg

<svg viewBox="0 0 16 16" xmlns="http://www.w3.org/2000/svg"><path d="m2 1v1h-1v2h1v8h-1v2h1v1h2v-1h8v1h2v-1h1v-2h-1v-3h1v-2h-1v-1h-2v1h-4v-3h1v-2h-1v-1h-2v1h-2v-1zm2 3h2v5h6v3h-8z" fill="#555753"/></svg>

<svg xmlns="http://www.w3.org/2000/svg" viewBox="0 0 16 16">
  <path
     style="fill:#555753"
     d="M 2 1 L 2 2 L 1 2 L 1 4 L 2 4 L 2 12 L 1 12 L 1 14 L 2 14 L 2 15 L 4 15 L 4 14 L 12 14 L 12 15 L 14 15 L 14 14 L 15 14 L 15 12 L 14 12 L 14 9 L 15 9 L 15 7 L 14 7 L 14 6 L 12 6 L 12 7 L 8 7 L 8 4 L 9 4 L 9 2 L 8 2 L 8 1 L 6 1 L 6 2 L 4 2 L 4 1 L 2 1 z M 4 4 L 6 4 L 6 9 L 12 9 L 12 12 L 4 12 L 4 4 z "
     />
</svg>
